polaris-icons/icons/newicons/CalendarTimeMinor.svg

<svg width="20" height="20" viewBox="0 0 20 20" fill="none" xmlns="http://www.w3.org/2000/svg">
<path fill-rule="evenodd" clip-rule="evenodd" d="M7 2C7.41421 2 7.75 2.33579 7.75 2.75V3.50164C7.98899 3.5 8.24452 3.5 8.51782 3.5H11.4821C11.7554 3.5 12.011 3.5 12.25 3.50164V2.75C12.25 2.33579 12.5858 2 13 2C13.4142 2 13.75 2.33579 13.75 2.75V3.57029C14.1875 3.62324 14.5825 3.7202 14.9525 3.90873C15.6581 4.26825 16.2317 4.84193 16.5913 5.54754C16.8176 5.99175 16.912 6.4719 16.9566 7.01853C17 7.54944 17 8.20505 17 9.01788V9.25C17 9.66421 16.6642 10 16.25 10C15.9234 10 15.6456 9.7913 15.5427 9.5H4.5V11.45C4.5 12.3025 4.50058 12.8967 4.53838 13.3593C4.57547 13.8132 4.6446 14.074 4.74524 14.2715C4.96095 14.6948 5.30516 15.0391 5.72852 15.2548C5.92604 15.3554 6.1868 15.4245 6.64068 15.4616C7.10331 15.4994 7.69755 15.5 8.55 15.5H9.25C9.66421 15.5 10 15.8358 10 16.25C10 16.6642 9.66421 17 9.25 17H8.51788C7.70505 17 7.04944 17 6.51853 16.9566C5.9719 16.912 5.49175 16.8176 5.04754 16.5913C4.34193 16.2317 3.76825 15.6581 3.40873 14.9525C3.18239 14.5082 3.08803 14.0281 3.04336 13.4815C2.99999 12.9506 2.99999 12.295 3 11.4821V9.0179C2.99999 8.20506 2.99999 7.54944 3.04336 7.01853C3.08803 6.4719 3.18239 5.99175 3.40873 5.54754C3.76825 4.84193 4.34193 4.26825 5.04754 3.90873C5.41755 3.7202 5.81248 3.62324 6.25 3.57029V2.75C6.25 2.33579 6.58579 2 7 2ZM15.4616 7.14068C15.4815 7.38442 15.4911 7.66469 15.4957 8H4.50427C4.50888 7.66469 4.51847 7.38442 4.53838 7.14068C4.57547 6.6868 4.6446 6.42604 4.74524 6.22852C4.96095 5.80516 5.30516 5.46095 5.72852 5.24524C5.92604 5.1446 6.1868 5.07547 6.64068 5.03838C7.10331 5.00058 7.69755 5 8.55 5H11.45C12.3025 5 12.8967 5.00058 13.3593 5.03838C13.8132 5.07547 14.074 5.1446 14.2715 5.24524C14.6948 5.46095 15.039 5.80516 15.2548 6.22852C15.3554 6.42604 15.4245 6.6868 15.4616 7.14068Z" fill="black"/>
<path fill-rule="evenodd" clip-rule="evenodd" d="M18 14.5C18 16.433 16.433 18 14.5 18C12.567 18 11 16.433 11 14.5C11 12.567 12.567 11 14.5 11C16.433 11 18 12.567 18 14.5ZM14.5 12.5C14.9142 12.5 15.25 12.8358 15.25 13.25V14.4393L16.0303 15.2197C16.3232 15.5126 16.3232 15.9874 16.0303 16.2803C15.7374 16.5732 15.2626 16.5732 14.9697 16.2803L14.1161 15.4268C13.8817 15.1924 13.75 14.8744 13.75 14.5429V13.25C13.75 12.8358 14.0858 12.5 14.5 12.5Z" fill="black"/>
</svg>

<svg viewBox="0 0 20 20" fill="none" xmlns="http://www.w3.org/2000/svg"><path fill-rule="evenodd" clip-rule="evenodd" d="M7 2a.75.75 0 0 1 .75.75v.752c.239-.002.495-.002.768-.002h2.964c.273 0 .529 0 .768.002v-.752a.75.75 0 0 1 1.5 0v.82c.438.053.832.15 1.203.339a3.75 3.75 0 0 1 1.638 1.639c.227.444.321.924.366 1.47.043.531.043 1.187.043 2v.232a.75.75 0 0 1-1.457.25h-11.043v1.95c0 .853 0 1.447.038 1.91.037.453.107.714.207.912.216.423.56.767.984.983.197.1.458.17.912.207.462.037 1.057.038 1.909.038h.7a.75.75 0 0 1 0 1.5h-.732c-.813 0-1.469 0-2-.043-.546-.045-1.026-.14-1.47-.366a3.75 3.75 0 0 1-1.64-1.639c-.226-.444-.32-.924-.365-1.47-.043-.531-.043-1.187-.043-2v-2.464c0-.813 0-1.469.043-2 .045-.546.14-1.026.366-1.47a3.75 3.75 0 0 1 1.639-1.64c.37-.188.764-.285 1.202-.338v-.82a.75.75 0 0 1 .75-.75Zm8.462 5.14c.02.244.03.525.034.86h-10.992c.005-.335.014-.616.034-.86.037-.453.107-.714.207-.911a2.25 2.25 0 0 1 .984-.984c.197-.1.458-.17.912-.207.462-.037 1.057-.038 1.909-.038h2.9c.853 0 1.447 0 1.91.038.453.037.714.107.912.207.423.216.767.56.983.984.1.197.17.458.207.912Z" fill="#000"/><path fill-rule="evenodd" clip-rule="evenodd" d="M18 14.5a3.5 3.5 0 1 1-7 0 3.5 3.5 0 0 1 7 0Zm-3.5-2a.75.75 0 0 1 .75.75v1.19l.78.78a.75.75 0 1 1-1.06 1.06l-.854-.853a1.25 1.25 0 0 1-.366-.884v-1.293a.75.75 0 0 1 .75-.75Z" fill="#000"/></svg>
